school/img/country/ER.svg

<svg width="13" height="12" viewBox="0 0 13 12" fill="none" xmlns="http://www.w3.org/2000/svg">
<rect width="13" height="12" rx="2" fill="white"/>
<mask id="mask0" mask-type="alpha" maskUnits="userSpaceOnUse" x="0" y="0" width="13" height="12">
<rect width="13" height="12" rx="2" fill="white"/>
</mask>
<g mask="url(#mask0)">
<path fill-rule="evenodd" clip-rule="evenodd" d="M13 0V6H0V0H13Z" fill="#29C53F"/>
<path fill-rule="evenodd" clip-rule="evenodd" d="M13 6V12.4H0V6H13Z" fill="#579DED"/>
<path fill-rule="evenodd" clip-rule="evenodd" d="M0 12L13 6L0 0V12Z" fill="#F42D56"/>
<path d="M5.52384 6.00001C5.52384 7.34733 4.70336 8.13335 4.02384 8.13335C3.34433 8.13335 2.52384 7.34733 2.52384 6.00001C2.52384 4.6527 3.34433 3.86668 4.02384 3.86668C4.70336 3.86668 5.52384 4.6527 5.52384 6.00001Z" stroke="#FFC63C" stroke-width="1.33333"/>
<path fill-rule="evenodd" clip-rule="evenodd" d="M3.71431 5.59999C3.88525 5.59999 4.02383 5.4209 4.02383 5.19999C4.02383 4.97907 3.88525 4.79999 3.71431 4.79999C3.54336 4.79999 3.40479 4.97907 3.40479 5.19999C3.40479 5.4209 3.54336 5.59999 3.71431 5.59999Z" fill="#FFC63C"/>
<path fill-rule="evenodd" clip-rule="evenodd" d="M4.33333 6.00001C4.50427 6.00001 4.64285 5.82093 4.64285 5.60001C4.64285 5.3791 4.50427 5.20001 4.33333 5.20001C4.16238 5.20001 4.0238 5.3791 4.0238 5.60001C4.0238 5.82093 4.16238 6.00001 4.33333 6.00001Z" fill="#FFC63C"/>
<path fill-rule="evenodd" clip-rule="evenodd" d="M4.02376 5.20002C4.1947 5.20002 4.33328 5.02094 4.33328 4.80002C4.33328 4.57911 4.1947 4.40002 4.02376 4.40002C3.85281 4.40002 3.71423 4.57911 3.71423 4.80002C3.71423 5.02094 3.85281 5.20002 4.02376 5.20002Z" fill="#FFC63C"/>
<path fill-rule="evenodd" clip-rule="evenodd" d="M3.71431 6.40004C3.88525 6.40004 4.02383 6.22095 4.02383 6.00004C4.02383 5.77912 3.88525 5.60004 3.71431 5.60004C3.54336 5.60004 3.40479 5.77912 3.40479 6.00004C3.40479 6.22095 3.54336 6.40004 3.71431 6.40004Z" fill="#FFC63C"/>
<path fill-rule="evenodd" clip-rule="evenodd" d="M4.33333 6.8C4.50427 6.8 4.64285 6.62091 4.64285 6.4C4.64285 6.17909 4.50427 6 4.33333 6C4.16238 6 4.0238 6.17909 4.0238 6.4C4.0238 6.62091 4.16238 6.8 4.33333 6.8Z" fill="#FFC63C"/>
<path fill-rule="evenodd" clip-rule="evenodd" d="M3.71431 7.19996C3.88525 7.19996 4.02383 7.02088 4.02383 6.79996C4.02383 6.57905 3.88525 6.39996 3.71431 6.39996C3.54336 6.39996 3.40479 6.57905 3.40479 6.79996C3.40479 7.02088 3.54336 7.19996 3.71431 7.19996Z" fill="#FFC63C"/>
<path fill-rule="evenodd" clip-rule="evenodd" d="M4.33333 7.59999C4.50427 7.59999 4.64285 7.4209 4.64285 7.19999C4.64285 6.97907 4.50427 6.79999 4.33333 6.79999C4.16238 6.79999 4.0238 6.97907 4.0238 7.19999C4.0238 7.4209 4.16238 7.59999 4.33333 7.59999Z" fill="#FFC63C"/>
</g>
</svg>

<svg width="13" height="12" fill="none" xmlns="http://www.w3.org/2000/svg"><rect width="13" height="12" rx="2" fill="#fff"/><mask id="a" maskUnits="userSpaceOnUse" x="0" y="0" width="13" height="12"><rect width="13" height="12" rx="2" fill="#fff"/></mask><g mask="url(#a)"><path fill-rule="evenodd" clip-rule="evenodd" d="M13 0v6H0V0h13z" fill="#29C53F"/><path fill-rule="evenodd" clip-rule="evenodd" d="M13 6v6.4H0V6h13z" fill="#579DED"/><path fill-rule="evenodd" clip-rule="evenodd" d="M0 12l13-6L0 0v12z" fill="#F42D56"/><path d="M5.524 6c0 1.347-.82 2.133-1.5 2.133s-1.5-.786-1.5-2.133.82-2.133 1.5-2.133 1.5.786 1.5 2.133z" stroke="#FFC63C" stroke-width="1.333"/><path fill-rule="evenodd" clip-rule="evenodd" d="M3.714 5.6c.171 0 .31-.18.31-.4 0-.22-.139-.4-.31-.4-.17 0-.31.18-.31.4 0 .22.14.4.31.4zm.619.4c.171 0 .31-.18.31-.4 0-.22-.139-.4-.31-.4-.17 0-.31.18-.31.4 0 .22.14.4.31.4z" fill="#FFC63C"/><path fill-rule="evenodd" clip-rule="evenodd" d="M4.024 5.2c.17 0 .31-.18.31-.4 0-.22-.14-.4-.31-.4-.171 0-.31.18-.31.4 0 .22.139.4.31.4zm-.31 1.2c.171 0 .31-.18.31-.4 0-.22-.139-.4-.31-.4-.17 0-.31.18-.31.4 0 .221.14.4.31.4zm.619.4c.171 0 .31-.18.31-.4 0-.22-.139-.4-.31-.4-.17 0-.31.18-.31.4 0 .22.14.4.31.4z" fill="#FFC63C"/><path fill-rule="evenodd" clip-rule="evenodd" d="M3.714 7.2c.171 0 .31-.18.31-.4 0-.221-.139-.4-.31-.4-.17 0-.31.179-.31.4 0 .22.14.4.31.4zm.619.4c.171 0 .31-.18.31-.4 0-.22-.139-.4-.31-.4-.17 0-.31.18-.31.4 0 .22.14.4.31.4z" fill="#FFC63C"/></g></svg>
